images/pricing/03.svg

<svg width="24" height="24" viewBox="0 0 24 24" fill="none" xmlns="http://www.w3.org/2000/svg">
<path d="M5 1H2C1.73478 1 1.48043 1.10536 1.29289 1.29289C1.10536 1.48043 1 1.73478 1 2V22C1 22.2652 1.10536 22.5196 1.29289 22.7071C1.48043 22.8946 1.73478 23 2 23H5V1Z" fill="#D6B1FF"/>
<path d="M7 23H17V1H7V23ZM12 19C11.7348 19 11.4804 18.8946 11.2929 18.7071C11.1054 18.5196 11 18.2652 11 18C11 17.7348 11.1054 17.4804 11.2929 17.2929C11.4804 17.1054 11.7348 17 12 17C12.2652 17 12.5196 17.1054 12.7071 17.2929C12.8946 17.4804 13 17.7348 13 18C13 18.2652 12.8946 18.5196 12.7071 18.7071C12.5196 18.8946 12.2652 19 12 19ZM12 5C12.2652 5 12.5196 5.10536 12.7071 5.29289C12.8946 5.48043 13 5.73478 13 6C13 6.26522 12.8946 6.51957 12.7071 6.70711C12.5196 6.89464 12.2652 7 12 7C11.7348 7 11.4804 6.89464 11.2929 6.70711C11.1054 6.51957 11 6.26522 11 6C11 5.73478 11.1054 5.48043 11.2929 5.29289C11.4804 5.10536 11.7348 5 12 5ZM12 11C12.2652 11 12.5196 11.1054 12.7071 11.2929C12.8946 11.4804 13 11.7348 13 12C13 12.2652 12.8946 12.5196 12.7071 12.7071C12.5196 12.8946 12.2652 13 12 13C11.7348 13 11.4804 12.8946 11.2929 12.7071C11.1054 12.5196 11 12.2652 11 12C11 11.7348 11.1054 11.4804 11.2929 11.2929C11.4804 11.1054 11.7348 11 12 11Z" fill="#F03E3D"/>
<path d="M22 1H19V23H22C22.2652 23 22.5196 22.8946 22.7071 22.7071C22.8946 22.5196 23 22.2652 23 22V2C23 1.73478 22.8946 1.48043 22.7071 1.29289C22.5196 1.10536 22.2652 1 22 1Z" fill="#F03E3D"/>
</svg>

<svg width="24" height="24" fill="none" xmlns="http://www.w3.org/2000/svg"><path d="M5 1H2a1 1 0 0 0-1 1v20a1 1 0 0 0 1 1h3V1Z" fill="#D6B1FF"/><path d="M7 23h10V1H7v22Zm5-4a1 1 0 1 1 0-2 1 1 0 0 1 0 2Zm0-14a1 1 0 1 1 0 2 1 1 0 0 1 0-2Zm0 6a1 1 0 1 1 0 2 1 1 0 0 1 0-2ZM22 1h-3v22h3a1 1 0 0 0 1-1V2a1 1 0 0 0-1-1Z" fill="#F03E3D"/></svg>
